X:430
T:Reel 430
M:4/4
K:Emin
L:1/8
EF|GEBE GEEE|FDDE FGAF|GEBE GEBE|AFDF E2EF|GBBE GEBE|FADF ADDF|GFEF GABG|AFDF E2|GA|Beed efed|BABc d2cd|Beed edef|gfed B2cd|Beed efed|BcBc d2cd|BcdB AFDF|GEFD E2|
